X:1
T:Shropshire Rounds
M:3/2
R:3/2 hornpipe
L:1/4
K:D
d2 c2 B2 | AEEGFA | d e/2d/2 c d/2c/2 B2 | AD D/2E/2 FED:|
GEFDGE | AEEGFA | dFEecA | dDD/2E/2FED :|
f g/2f/2 e f/2e/2 cB | ceeBce |f/2g/2a/2f/2 BecA | dDD/2E/2FED :|
